X:1178
T:Vals från Uppland
R:Vals
Z:Klas Krantz, 2006
O:Uppland
L:1/8
M:3/4
K:Am
AB | "Am"c3B AB | c3B AG | "Em"B2A2A2 | "Am"A4Ac |
"C"e3c e^f | "G"g3^f ed | "D"^f2e2e2 | "Em"e4 :|]
|:ef | "C"e2c2c2 | "Am"c2e^fge | "D"^f2d2d2 | "Bm"d2^fgaf |
"Em"g2-g^f ed | "Am"c2-cB AG | "Em"B2A2A2 | "Am"A4 :|]
(:musicend:)

[[!Ackord]]

(:music:)
